X:1
T:Title
%%score 1 2 3 4
L:1/8
M:2/2
K:F
V:1 treble nm="Part_1"
V:2 treble nm="Part_2"
V:3 bass nm="Part_3"
V:4 bass nm="Part_4"
V:1
 F4 G2 G2 | A>GA/B/c/A/ B4 | A4 z4 | z8 | z2 c2 d2 cA | G4 F2 c2 | B2 BB A>GA>B | c3 B/A/ G4 | %8
 F2 A2 B2 c2 |[M:4/8] z4 |[M:3/2] F6 F2 G4 | A8 z4 | c6 A2 G4 | F8 z4 | F2 G2 A2 B2 c4 | A4 G8 | %16
 F12 | z12 | c2 B2 c2 A2 B2 G2 | A6 A2 G4 | F8 z4 | z12 | z2 d4 c2 B4 |[M:2/2] A4 G4 | %24
 A2 c2 =B c2 B | c2 A2 G4 | G2 F2 Gc>BG |[M:4/8] A4 |[M:3/2] A4 F4 G4 | A8 z4 | A4 c4 B4 | A8 z4 | %32
 z2 d4 c2 B4 |[M:2/2] A4 c3 G | B2 A2 G B2 A | B2 c3 F G2 | A2 z2 z4 | z4 z4 | z4 z2 d2- | %39
 dc c2 c4 |[M:3/2] c6 B2 A4 | G4 z4 z4 | A6 G2 ^F4 | G4 z4 z4 | G6 F2 E4 | F4 z4 z4 | d6 c2 B4 | %47
[M:2/2] A4 B4 | A2 A2 c2 c2 | =B c2 B c2 G2 | A4 G4 | z4 z2 A2 | =B2 c2 d4 | ^c2 c2 d>=c =B2 | %54
 c4 z4 | z2 d2 =B c2 B | c8 |[M:3/2] c6 B2 A4 | G2 F4 F2 E4 | F12 | z12 | z12 | z12 | z12 | %64
 c3 B A2 G2 F2 E2 | D6 E2 F4 | E2 F2 G2 F4 E2 | F12 | z12 | z12 |[M:2/2] z4 z2 d2- | %71
 dd c3 B/A/ G2 | A8 |] %73
V:2
 z8 | z8 | F4 G2 G2 | A>GA/B/c/A/ B4 | A2 A2 B2 AF | FE/D/ E2 F2 A2 | D>CD>E F4 | EC F4 E2 | %8
 F4 z2 A2 |[M:4/8] B2 c2 |[M:3/2] z12 | F6 F2 G4 | A8 z4 | c6 A2 G4 | F12 | z12 | F2 G2 A2 B2 c4 | %17
 A4 G8 | F8 z4 | z12 | c2 B2 c2 A2 B2 G2 | A6 A2 G4 | F2 F4 F2 F4 |[M:2/2] F4 z4 | z4 G4 | %25
 A2 c2 =B c2 B | c2 A2 G F2 E |[M:4/8] F4 |[M:3/2] z12 | A4 F4 G4 | A8 z4 | A4 c4 B4 | %32
 A2 F4 F2 F4 |[M:2/2] F4 z4 | z8 | z8 | c3 G B2 A2 | G B2 A B2 c2- | cF G2 A2 B2- | BA G2 A4 | %40
[M:3/2] z12 | G6 F2 E4 | D4 z4 z4 | d6 c2 =B4 | c4 z4 z4 | c6 B2 A4 | B2 F4 F2 F4 |[M:2/2] F4 z4 | %48
 z8 | z8 | F4 E2 E2 | G2 G2 ^F G2 F | G3 EDE/F/ G2 | E2 E2 ^F2 G2 | A4 ^G2 A2 | ^F G2 F G4- | %56
 G4 z4 |[M:3/2] z12 | z12 | c6 B2 A4 | G2 F4 F2 E4 | F12 | B6 c2 d4 | c12 | A6 B2 c4 | d12 | z12 | %67
 c3 B A2 G2 F2 E2 | D6 E2 F4 | E2 F2 G2 F4 E2 |[M:2/2] F4 z2 F2- | F2 F2 E/C/ F2 E | F8 |] %73
V:3
 z8 | F,4 G,2 G,2 | A,G,F,E,/D,/ C,4 | F,,2 F,2 B,,4 | F,,4 z2 F,2 | C,4 F,,4 | %6
 z2 B,,2 F,3 E,/D,/ | C,8 | F,,2 F,2 B,,2 F,2 |[M:4/8] z4 |[M:3/2] F,6 D,2 C,4 | F,8 z4 | z12 | %13
 F,6 F,2 C,4 | F,,12 | z12 | F,2 E,2 F,2 G,2 A,2 G,2 | F,4 C,4 C,4 | F,8 z4 | z12 | %20
 A,2 G,2 A,2 F,2 G,2 E,2 | F,6 F,2 C,4 | F,,2 B,,4 A,,2 B,,4 |[M:2/2] F,,4 C,4 | F,2 A,2 G,2 G,2 | %25
 C,2 F,F, G,2 G,,2 | C,2 F,2 C,4 |[M:4/8] F,4 |[M:3/2] z12 | F,4 D,4 E,4 | F,8 z4 | F,4 A,4 G,4 | %32
 F,2 B,,4 A,,2 B,,4 |[M:2/2] F,,4 z4 | z8 | z8 | F,3 E, G,2 F,2 | _E,G, F,2 B,,2 F,2- | %38
 F,D, C,2 F,2 B,,2- | B,,F, C,2 F,4 |[M:3/2] z12 | C,4 =B,,4 C,4 | D,4 z4 z4 | G,4 ^F,4 G,4 | %44
 C,4 z4 z4 | F,4 E,4 F,4 | B,,2 B,,4 A,,2 B,,4 |[M:2/2] F,,4 B,,4 | F,2 F,2 C,2 C,2 | %49
 G,3 G,, C,2 C,2 | F,4 C,2 C,2 | G,,2 G,,2 D,4 | G,,G,, C,C, B,,4 | A,,4 z4 | z2 F,2 E,2 ^C,2 | %55
 D,4 G,,4 | C,4 F,,4 |[M:3/2] F,4 E,4 F,4 | C,2 D,4 B,,2 C,4 | F,,12 | z12 | %61
 F,3 E, D,2 C,2 B,,2 A,,2 | G,,6 A,,2 B,,4 | F,,2 G,,2 A,,2 B,,2 C,4 | F,,12 | B,,6 C,2 D,4 | %66
 C,8 C,4 | F,,8 F,4 | B,,12 | C,12 |[M:2/2] F,4 z2 B,,2- | B,,2 A,,2 C,4 | F,,8 |] %73
V:4
 F,,4 C,2 C,2 | F,4 G,2 G,2 | F,3 E,/D,/ C,4 | F,,2 F,,2 B,,4 | F,,2 F,,2 B,,2 F,,F,, | %5
 C,4 F,,2 F,,2 | B,,2 B,,B,, F,3 E,/D,/ | C,8 | F,,2 F,,2 B,,2 F,,2 |[M:4/8] B,,2 F,,2 | %10
[M:3/2] F,6 D,2 C,4 | F,6 D,2 C,4 | F,6 F,2 C,4 | F,,6 F,,2 C,4 | F,,12 | F,,4 C,4 C,4 | F,,12 | %17
 F,,4 C,4 C,4 | F,,8 G,,4 | F,,8 C,4 | F,,8 G,,4 | F,,8 C,4 | F,,2 B,,4 A,,2 B,,4 | %23
[M:2/2] F,,4 C,4 | F,2 A,2 G,4 | C,2 F,,2 G,,4 | C,2 F,,2 C,4 |[M:4/8] F,,4 |[M:3/2] F,4 D,4 E,4 | %29
 F,4 D,4 E,4 | F,4 F,4 G,4 | F,4 A,4 G,4 | F,2 B,,4 A,,2 B,,4 |[M:2/2] F,,4 F,2 E,2 | %34
 G,2 F,2 _E,G, F,2 | B,,2 F,3 D, C,2 | F,3 E, G,2 F,2 | _E,G, F,2 B,,2 F,2- | F,D, C,2 F,,2 B,,2- | %39
 B,,F,, C,2 F,,4 |[M:3/2] F,4 E,4 F,4 | C,4 =B,,4 C,4 | D,4 ^C,4 D,4 | G,4 ^F,4 G,4 | %44
 C,4 =B,,4 C,4 | F,4 E,4 F,4 | B,,6 A,,2 B,,4 |[M:2/2] F,,4 B,,4 | F,,2 F,,2 C,2 C,2 | %49
 G,,4 C,2 C,2 | F,,4 C,2 C,2 | G,,4 D,4 | G,,2 C,2 B,,2 B,,2 | A,,4 D,2 G,2 | F,4 E,2 ^C,2 | %55
 D,4 G,,4 | C,4 F,,4 |[M:3/2] F,4 E,4 F,4 | C,2 D,4 B,,2 C,4 | F,,4 F,,4 F,,4 | C,2 D,4 B,,2 C,4 | %61
 F,,12 | G,,6 A,,2 B,,4 | F,,2 G,,2 A,,2 B,,2 C,4 | F,,12 | B,,6 C,2 D,4 | C,8 C,4 | F,,8 F,,4 | %68
 B,,12 | C,12 |[M:2/2] F,,4 z2 B,,2- | B,,2 A,,2 C,4 | F,,8 |] %73

